src/assets/images/pages/report/empty-doc.svg

<svg width="143" height="188" viewBox="0 0 143 188" fill="none" xmlns="http://www.w3.org/2000/svg"><path d="M40.0702 51.2143H14.98V62.456H40.0702V51.2143z" fill="#f5f5f5"/><path d="M40.0702 68.7047H14.98V79.9464H40.0702V68.7047z" fill="#f5f5f5"/><path d="M83.949 35.601H58.8588V46.8426H83.949V35.601z" fill="#f5f5f5"/><path d="M83.949 53.0894H58.8588V64.3311H83.949V53.0894z" fill="#f5f5f5"/><path d="M143 188H0V23.7039L21.6034.0H143V188z" fill="url(#paint0_linear)"/><path d="M140.789 183.004H2.52386V24.9833L23.4158 2.18713H140.789V183.004z" fill="#fff"/><path d="M83.3843 21.7043H16.0245V32.946H83.3843V21.7043z" fill="#e0e0e0"/><path d="M65.5216 52.4653H16.1601V63.707H65.5216V52.4653z" fill="#e0e0e0"/><path opacity=".2" d="M126.882 98.6842H16.1601V139.906H126.882V98.6842z" fill="#6c50f0"/><path d="M126.882 21.8598H101.792V33.1015H126.882V21.8598z" fill="#e0e0e0"/><path d="M126.882 39.3483H101.792V50.5899H126.882V39.3483z" fill="#e0e0e0"/><path d="M126.882 56.8377H101.792V68.0794H126.882V56.8377z" fill="#e0e0e0"/><path d="M25.57 2.18713V27.1702H2.52386V24.9833L23.3594 2.18713H25.57z" fill="url(#paint1_linear)"/><path d="M2.46735 24.9833 23.3593 2.18713V24.9833H2.46735z" fill="#eee"/><defs><linearGradient id="paint0_linear" x1="80185.8" y1="126547" x2="80185.8" y2="0" gradientUnits="userSpaceOnUse"><stop offset=".01" stop-color="gray" stop-opacity=".25"/><stop offset=".54" stop-color="gray" stop-opacity=".12"/><stop offset="1" stop-color="gray" stop-opacity=".1"/></linearGradient><linearGradient id="paint1_linear" x1="8235.52" y1="2432.54" x2="8235.52" y2="197.804" gradientUnits="userSpaceOnUse"><stop stop-color="#b3b3b3" stop-opacity=".25"/><stop offset=".54" stop-color="#b3b3b3" stop-opacity=".1"/><stop offset="1" stop-color="#b3b3b3" stop-opacity=".05"/></linearGradient></defs></svg>

<svg width="143" height="188" fill="none" xmlns="http://www.w3.org/2000/svg"><path d="M40.07 51.214H14.98v11.242h25.09V51.214zM40.07 68.705H14.98v11.241h25.09V68.705zM83.949 35.601h-25.09v11.242h25.09V35.6zM83.949 53.09h-25.09V64.33h25.09V53.09z" fill="#f5f5f5"/><path d="M143 188H0V23.704L21.603 0H143v188z" fill="url(#paint0_linear)"/><path d="M140.789 183.004H2.524V24.984L23.416 2.186h117.373v180.817z" fill="#fff"/><path d="M83.384 21.704h-67.36v11.242h67.36V21.704zM65.522 52.465H16.16v11.242h49.362V52.465z" fill="#e0e0e0"/><path opacity=".2" d="M126.882 98.684H16.16v41.222h110.722V98.684z" fill="#6c50f0"/><path d="M126.882 21.86h-25.09v11.242h25.09V21.86zM126.882 39.348h-25.09V50.59h25.09V39.348zM126.882 56.838h-25.09v11.241h25.09V56.838z" fill="#e0e0e0"/><path d="M25.57 2.187V27.17H2.524v-2.187L23.359 2.187h2.211z" fill="url(#paint1_linear)"/><path d="M2.467 24.983L23.36 2.187v22.796H2.467z" fill="#eee"/><defs><linearGradient id="paint0_linear" x1="80185.8" y1="126547" x2="80185.8" y2="0" gradientUnits="userSpaceOnUse"><stop offset=".01" stop-color="gray" stop-opacity=".25"/><stop offset=".54" stop-color="gray" stop-opacity=".12"/><stop offset="1" stop-color="gray" stop-opacity=".1"/></linearGradient><linearGradient id="paint1_linear" x1="8235.52" y1="2432.54" x2="8235.52" y2="197.804" gradientUnits="userSpaceOnUse"><stop stop-color="#b3b3b3" stop-opacity=".25"/><stop offset=".54" stop-color="#b3b3b3" stop-opacity=".1"/><stop offset="1" stop-color="#b3b3b3" stop-opacity=".05"/></linearGradient></defs></svg>
